X:1943
T:Trönderbrura
R:Vals
Q:1/4=200
M:3/4
L:1/8
K:F
C2|:"F" C2 (=B,2 C2) | F4 FF | F2 (E2F2) | A6| (E2 F2) A2 | d2 c3 F |"C7" E6-| E4 C2 | C2 (E2 G2) | [c2E2] (c3 d) | (e4 d2)| c6-| c2 G2 A2| B2 c3 G|"F" A6-| A4 C2 | C2 (=B,2 C2)| F2 (E2 F2) | A2 A3 G| F6 | (E2 F2) A2 | (G4 F2) |"Bb" D6-|D6 | D2 (G2 B2) | "Gm" d6 |"F" c2 F3 B | A4 A2 |"C7" (A2 G2 B2 ) | D2 E2 C2 |1 "F" F6- | F2 z2 C2 :|2 "F" F6- | F3 FAc |: "F"f4 e2 | d4 A2 |"C7" B6- |B4 (GA) |"Gm" (B4 d2) |"C7" c2 c3 G | "F"A6- | A3 (FAc) | f4 c2 | "F7"(A4 F2)  |"Bb" (B2 d3 B) | "Gm"(D4 D2) |"C7" (E4 B2) | (A4 G2) |1"F" F6- | F3 FAc :|2 "F"F6- |F4 z2 |] 
(:musicend:)



(:music:)
